dist/assets/img/socials/2.svg

<svg width="24" height="24" viewBox="0 0 24 24" fill="none" xmlns="http://www.w3.org/2000/svg">
<g clip-path="url(#clip0_1624_9638)">
<path d="M20.4844 0H3.51562C1.57727 0 0 1.57727 0 3.51562V20.4844C0 22.4227 1.57727 24 3.51562 24H20.4844C22.4227 24 24 22.4227 24 20.4844V3.51562C24 1.57727 22.4227 0 20.4844 0ZM12.0469 18.2812C8.55743 18.2812 5.71875 15.4426 5.71875 11.9531C5.71875 8.46368 8.55743 5.625 12.0469 5.625C15.5363 5.625 18.375 8.46368 18.375 11.9531C18.375 15.4426 15.5363 18.2812 12.0469 18.2812ZM19.0781 7.03125C17.915 7.03125 16.9688 6.08496 16.9688 4.92188C16.9688 3.75879 17.915 2.8125 19.0781 2.8125C20.2412 2.8125 21.1875 3.75879 21.1875 4.92188C21.1875 6.08496 20.2412 7.03125 19.0781 7.03125Z" fill="#16171A"/>
<path d="M19.0781 4.21875C18.6901 4.21875 18.375 4.53387 18.375 4.92188C18.375 5.30988 18.6901 5.625 19.0781 5.625C19.4661 5.625 19.7812 5.30988 19.7812 4.92188C19.7812 4.53387 19.4661 4.21875 19.0781 4.21875Z" fill="#16171A"/>
<path d="M12.0469 7.03125C9.33325 7.03125 7.125 9.2395 7.125 11.9531C7.125 14.6667 9.33325 16.875 12.0469 16.875C14.7605 16.875 16.9688 14.6667 16.9688 11.9531C16.9688 9.2395 14.7605 7.03125 12.0469 7.03125Z" fill="#16171A"/>
</g>
<defs>
<clipPath id="clip0_1624_9638">
<rect width="24" height="24" fill="white"/>
</clipPath>
</defs>
</svg>

<svg width="24" height="24" fill="none" xmlns="http://www.w3.org/2000/svg"><g clip-path="url(#clip0_1624_9638)" fill="#16171A"><path d="M20.484 0H3.516A3.52 3.52 0 000 3.516v16.968A3.52 3.52 0 003.516 24h16.968A3.52 3.52 0 0024 20.484V3.516A3.52 3.52 0 0020.484 0zm-8.437 18.281a6.335 6.335 0 01-6.328-6.328 6.335 6.335 0 016.328-6.328 6.335 6.335 0 016.328 6.328 6.335 6.335 0 01-6.328 6.328zm7.031-11.25a2.112 2.112 0 01-2.11-2.11c0-1.162.947-2.109 2.11-2.109 1.163 0 2.11.947 2.11 2.11 0 1.163-.947 2.11-2.11 2.11z"/><path d="M19.078 4.219a.704.704 0 100 1.407.704.704 0 000-1.407zm-7.031 2.812a4.928 4.928 0 00-4.922 4.922 4.928 4.928 0 004.922 4.922 4.928 4.928 0 004.922-4.922 4.928 4.928 0 00-4.922-4.922z"/></g><defs><clipPath id="clip0_1624_9638"><path fill="#fff" d="M0 0h24v24H0z"/></clipPath></defs></svg>
